libs/ui/packages/crypto-icons/src/svg/TKN.svg

<svg width="24" height="24" viewBox="0 0 24 24" fill="none">
<path d="M10.569 5.9348L13.8713 4.50005L13.8442 8.2898H18V10.9148H13.8165V15.462C13.8165 16.842 16.1565 17.0048 17.037 16.545L17.835 18.927C15.8805 20.0633 10.5413 19.7925 10.5413 15.489V5.93405H10.569V5.9348ZM7.4865 11.6183C6.66525 11.6183 6 10.8188 6 9.83255C6 8.84555 6.66525 8.04605 7.4865 8.04605C8.307 8.04605 8.97225 8.84555 8.97225 9.83255C8.97225 10.8188 8.307 11.6183 7.4865 11.6183Z" fill="#24DD7B"/>
</svg>

<svg width="24" height="24" viewBox="0 0 24 24" fill="none"><path fill="#24dd7b" d="M10.569 5.935 13.871 4.5l-.027 3.79H18v2.625h-4.183v4.547c0 1.38 2.34 1.543 3.22 1.083l.798 2.382c-1.955 1.136-7.294.866-7.294-3.438V5.934zm-3.083 5.683c-.82 0-1.486-.8-1.486-1.785 0-.987.665-1.787 1.487-1.787.82 0 1.485.8 1.485 1.787s-.665 1.785-1.485 1.785"/></svg>
